X:18569
T:Wedding Waltz, The
S:Andy Hornby
R:Waltz
O:England
N:1993
M:3/4
C:Andy Hornby
A:Lancaster
K:D
A2 | f2 fefa | d4 c2 | B2 Bcdc | B2 A2 A2 | \
f2 fefa | d4 dc | B2 Bcdf | e4 A2 | \
f2 fefa | d4 c2 | B2Bcdc | B2A2G2 | \
F2FGAB | A2d2e2 | f2fgfe | d4 ::\
ef | \
g2gafg | e4 de | f2fgfe | d4 c2 | B3c dc | B2A2de | f2 defg | e4 fg | \
a3f dc | B4 gf | e2edce | A4 de | f3a fd | B4 gf  | e2 edce | d4 :|**
W:Copyright Andy Hornby


